!!!id: EG077
!!!page: 53
!!!COM: Anonymous
!!!LYR: Anonymous
!!!PTL@@FR: Chansons Populaires du Canada
!!!OTL@@FR: Mon cri cra, tir' la lirette
!!!PUB: G. E. Desbarats
!!!YEM:
!!!PDT: 1865
!!!SMA:
!!!OMD:
!!!AGN-Laforte:
!!!AGN-type:
!!!AGN-rime:
**kern
*clefG2
*k[]
*C:
*M2/4
*
*
=1
4cc
8dd
8ee
=2
8dd
8ee
8dd
8dd
=3
4cc
8dd
8ee
=4
8dd
8ee
4dd
!!LO:PB:g=original
=5
4dd
8ee
8dd
=6
8cc
8b
8a
8g
=7
4dd
8ee
8dd
=8
8cc
8b
8aL
8gJ
!!LO:PB:g=original
=9
8g
8cc
4cc
=10
8ee
16ee
16ff
8ee
8dd
=11
8cc
8ee
8ddL
8ccJ
=12
8dd
16ee
16dd
4cc
==||
*
*
==|
*-
